X:1
T:Title
%%score { 1 | 2 }
L:1/8
Q:1/4=100
M:4/4
K:F
V:1 treble nm="Grand Piano"
V:2 bass 
V:1
 c c2 c c B2 A | [DG]2 [DG]2 [B,D]4 | [B,E] [Ec]2 [Ec] [Ec] [EB]2 [EG] | F2 [Fd]2 c4 | %4
w: Benjamin~A.~Baur * * * * *||||
 c2 c2 c B2 A | [DG][DG][DG][DG] [B,D]4 | [B,E] [Ec]2 [Ec] [Ec] [CFA]2 [A,CF] | %7
w: |||
 [B,EG]4 [A,CF]2 z2 |] %8
w: |
V:2
 [F,A,F] [F,A,F]2 [F,A,F] [F,A,F] [F,DF]2 [F,CF] | [B,,B,]2 [B,,B,]2 [B,,G,]4 | %2
 [C,G,] [C,B,]2 [C,B,] [C,B,] [C,G,]2 [C,B,] | [D,A,]2 [B,,B,]2 [F,A,F]4 | %4
 [F,A,F]2 [F,A,F]2 [F,A,F] [F,DF]2 [F,CF] | [B,,B,][B,,B,][B,,B,][B,,B,] [B,,G,]4 | %6
 [C,G,] [C,B,]2 [C,B,] [C,B,] C,2 C, | C,4 F,,2 z2 |] %8

